X:22761
T:Shannon Reay 
C:John Quayle
C:Traditional
O:Isle of Man
Z:Clague collection
B:Kiaull Vannin #276 
M:4/4 
L:1/8 
Q:70 
K:D 
BAB|EEGA BBAB|EE E3 EGA|BB ee eB BB|Ac !fermata!B3 EGA| 
BB ee eB cc|BA !fermata!B3 !fermata!BAB|EE AA BB AB|EE E3|| 
